static/img/kroki/10552d60f0ec391b7c7addc3261bc569.svg

<?xml version="1.0" encoding="us-ascii" standalone="no"?><svg xmlns="http://www.w3.org/2000/svg" xmlns:xlink="http://www.w3.org/1999/xlink" contentStyleType="text/css" height="374px" preserveAspectRatio="none" style="width:303px;height:374px;" version="1.1" viewBox="0 0 303 374" width="303px" zoomAndPan="magnify"><defs/><g><!--class gcp_network_endpoint_group--><g id="elem_gcp_network_endpoint_group"><rect codeLine="23" fill="#3D176E" height="39.7891" id="gcp_network_endpoint_group" rx="2.5" ry="2.5" style="stroke:#000D19;stroke-width:0.5;" width="289" x="7" y="328.58"/><ellipse cx="22" cy="348.4745" fill="#ADD1B2" rx="11" ry="11" style="stroke:#181818;stroke-width:1.0;"/><path d="M24.9688,354.1152 Q24.3906,354.412 23.75,354.5527 Q23.1094,354.7089 22.4063,354.7089 Q19.9063,354.7089 18.5781,353.0683 Q17.2656,351.412 17.2656,348.287 Q17.2656,345.162 18.5781,343.5058 Q19.9063,341.8495 22.4063,341.8495 Q23.1094,341.8495 23.75,342.0058 Q24.4063,342.162 24.9688,342.4589 L24.9688,345.1777 Q24.3438,344.5995 23.75,344.3339 Q23.1563,344.0527 22.5313,344.0527 Q21.1875,344.0527 20.5,345.1308 Q19.8125,346.1933 19.8125,348.287 Q19.8125,350.3808 20.5,351.4589 Q21.1875,352.5214 22.5313,352.5214 Q23.1563,352.5214 23.75,352.2558 Q24.3438,351.9745 24.9688,351.3964 L24.9688,354.1152 Z " fill="#000000"/><text fill="#D9B8FF" font-family="Helvetica" font-size="17" lengthAdjust="spacing" textLength="247" x="41" y="354.3598">gcp_network_endpoint_group</text></g><!--class gcp_resource--><g id="elem_gcp_resource"><rect codeLine="26" fill="#3D176E" height="39.7891" id="gcp_resource" rx="2.5" ry="2.5" style="stroke:#000D19;stroke-width:0.5;" width="150" x="76.5" y="167.79"/><ellipse cx="91.5" cy="187.6845" fill="#ADD1B2" rx="11" ry="11" style="stroke:#181818;stroke-width:1.0;"/><path d="M94.4688,193.3252 Q93.8906,193.622 93.25,193.7627 Q92.6094,193.9189 91.9063,193.9189 Q89.4063,193.9189 88.0781,192.2783 Q86.7656,190.622 86.7656,187.497 Q86.7656,184.372 88.0781,182.7158 Q89.4063,181.0595 91.9063,181.0595 Q92.6094,181.0595 93.25,181.2158 Q93.9063,181.372 94.4688,181.6689 L94.4688,184.3877 Q93.8438,183.8095 93.25,183.5439 Q92.6563,183.2627 92.0313,183.2627 Q90.6875,183.2627 90,184.3408 Q89.3125,185.4033 89.3125,187.497 Q89.3125,189.5908 90,190.6689 Q90.6875,191.7314 92.0313,191.7314 Q92.6563,191.7314 93.25,191.4658 Q93.8438,191.1845 94.4688,190.6064 L94.4688,193.3252 Z " fill="#000000"/><text fill="#D9B8FF" font-family="Helvetica" font-size="17" lengthAdjust="spacing" textLength="108" x="110.5" y="193.5698">gcp_resource</text></g><!--class resource--><g id="elem_resource"><rect codeLine="29" fill="#3D176E" height="39.7891" id="resource" rx="2.5" ry="2.5" style="stroke:#000D19;stroke-width:0.5;" width="113" x="95" y="7"/><ellipse cx="110" cy="26.8945" fill="#ADD1B2" rx="11" ry="11" style="stroke:#181818;stroke-width:1.0;"/><path d="M112.9688,32.5352 Q112.3906,32.832 111.75,32.9727 Q111.1094,33.1289 110.4063,33.1289 Q107.9063,33.1289 106.5781,31.4883 Q105.2656,29.832 105.2656,26.707 Q105.2656,23.582 106.5781,21.9258 Q107.9063,20.2695 110.4063,20.2695 Q111.1094,20.2695 111.75,20.4258 Q112.4063,20.582 112.9688,20.8789 L112.9688,23.5977 Q112.3438,23.0195 111.75,22.7539 Q111.1563,22.4727 110.5313,22.4727 Q109.1875,22.4727 108.5,23.5508 Q107.8125,24.6133 107.8125,26.707 Q107.8125,28.8008 108.5,29.8789 Q109.1875,30.9414 110.5313,30.9414 Q111.1563,30.9414 111.75,30.6758 Q112.3438,30.3945 112.9688,29.8164 L112.9688,32.5352 Z " fill="#000000"/><text fill="#D9B8FF" font-family="Helvetica" font-size="17" lengthAdjust="spacing" textLength="71" x="129" y="32.7798">resource</text></g><!--reverse link gcp_resource to gcp_network_endpoint_group--><g id="link_gcp_resource_gcp_network_endpoint_group"><path codeLine="32" d="M151.5,225.84 C151.5,256.36 151.5,297.69 151.5,328.25 " fill="none" id="gcp_resource-backto-gcp_network_endpoint_group" style="stroke:#FFAF37;stroke-width:2.0;"/><polygon fill="none" points="151.5,207.84,145.5,225.84,157.5,225.84,151.5,207.84" style="stroke:#FFAF37;stroke-width:2.0;"/></g><!--reverse link resource to gcp_resource--><g id="link_resource_gcp_resource"><path codeLine="33" d="M151.5,65.05 C151.5,95.57 151.5,136.9 151.5,167.46 " fill="none" id="resource-backto-gcp_resource" style="stroke:#FFAF37;stroke-width:2.0;"/><polygon fill="none" points="151.5,47.05,145.5,65.05,157.5,65.05,151.5,47.05" style="stroke:#FFAF37;stroke-width:2.0;"/></g><!--SRC=[XT1DRuCm30RWExyYKiz8i6gZIBkqIDDsgQPrTnI80n6G8CSCTH__VMDTfnHQUhKVsQzTAW4CcfRsh84c0xIUhPHkEVA6hH5DdvZQ85j8oUKo6ZSVZAQhOCiRO8zGlm6fd8_5QwdoIeErxCPfRNXU5MWwBGxZ2RcsFotGvAYavjQkYL1b7O4JHiJPIign70zTB4KOtS646HI0VoG80X76Ot9rrUpT_sAdte65xjEsXc0ISxBYLysc78GJSdBeiNynupCNGkc2tJgrbqCcr80dzLt9XUa7BNbjtJMM0C7GleLaSXN4Ao6Zi_Zf4lRouNMioDjK0_K6gnIqQ8tIb0w-PH-Uz-Ke16iwpC6jdzPErFsdx_ipuxqpybZolW40]--></g></svg>

<svg xmlns="http://www.w3.org/2000/svg" width="303" height="374" viewBox="0 0 303 374"><rect width="289" height="39.789" x="7" y="328.58" fill="#3D176E" rx="2.5" ry="2.5" style="stroke:#000d19;stroke-width:.5"/><circle cx="22" cy="348.474" r="11" fill="#ADD1B2" style="stroke:#181818;stroke-width:1"/><path d="M24.969 354.115q-.578.297-1.219.438-.64.156-1.344.156-2.5 0-3.828-1.64-1.312-1.657-1.312-4.782t1.312-4.781q1.328-1.656 3.828-1.656.703 0 1.344.156.656.156 1.219.453v2.719q-.625-.579-1.219-.844-.594-.281-1.219-.281-1.343 0-2.031 1.078-.687 1.062-.687 3.156t.687 3.172q.688 1.062 2.031 1.062.625 0 1.219-.265.594-.281 1.219-.86z"/><text x="41" y="354.36" fill="#D9B8FF" font-family="Helvetica" font-size="17" textLength="247">gcp_network_endpoint_group</text><rect width="150" height="39.789" x="76.5" y="167.79" fill="#3D176E" rx="2.5" ry="2.5" style="stroke:#000d19;stroke-width:.5"/><circle cx="91.5" cy="187.685" r="11" fill="#ADD1B2" style="stroke:#181818;stroke-width:1"/><path d="M94.469 193.325q-.578.297-1.219.438-.64.156-1.344.156-2.5 0-3.828-1.64-1.312-1.657-1.312-4.782t1.312-4.781q1.328-1.656 3.828-1.656.703 0 1.344.156.656.156 1.219.453v2.719q-.625-.578-1.219-.844-.594-.281-1.219-.281-1.344 0-2.031 1.078-.687 1.062-.687 3.156t.687 3.172q.688 1.062 2.031 1.062.625 0 1.219-.265.594-.281 1.219-.86z"/><text x="110.5" y="193.57" fill="#D9B8FF" font-family="Helvetica" font-size="17" textLength="108">gcp_resource</text><rect width="113" height="39.789" x="95" y="7" fill="#3D176E" rx="2.5" ry="2.5" style="stroke:#000d19;stroke-width:.5"/><circle cx="110" cy="26.895" r="11" fill="#ADD1B2" style="stroke:#181818;stroke-width:1"/><path d="M112.969 32.535q-.578.297-1.219.438-.64.156-1.344.156-2.5 0-3.828-1.64-1.312-1.657-1.312-4.782t1.312-4.781q1.328-1.656 3.828-1.656.703 0 1.344.156.656.156 1.219.453v2.719q-.625-.578-1.219-.844-.594-.281-1.219-.281-1.344 0-2.031 1.078-.687 1.062-.687 3.156t.687 3.172q.688 1.062 2.031 1.062.625 0 1.219-.265.594-.281 1.219-.86z"/><text x="129" y="32.78" fill="#D9B8FF" font-family="Helvetica" font-size="17" textLength="71">resource</text><path fill="none" d="M151.5 225.84v102.41m0-120.41-6 18h12zm0-142.79v102.41m0-120.41-6 18h12z" style="stroke:#ffaf37;stroke-width:2"/></svg>
